X: 4
T:Nightingale, Stanton Harcourt
M:6/8
L:1/8
Q:1/4=120
A:Stanton Harcourt
P:A(AB)4A
K:G
P:A
|:D|G>GD G2A |B>BA B2G/c/|d>Bd c>BA|G3-G2:||
P:B
B/c/|d>dB c2B/c/|d>GA D2E/F/|G>AB c>de|
d>cB c>BA  |BAG  A2D/D/|GBd  c>BA|G3-G2:||
